X: 507
T: Mad.m Buonaparte's Waltz.abc
%R: waltz
B: "Preston's Twenty Four Country Dances for the Year 1803", Tho. Preston, ed. p.214 #1
F: http://folkopedia.efdss.org/images/archive/0/02/20121211105513%21Preston_24_1803.PDF
F: http://folkopedia.efdss.org/wiki/File:Preston_24_1803.PDF
Z: 2014 John Chambers <jc:trillian.mit.edu>
M: 3/8
L: 1/16
K: Bb
% - - - - - - - - - - - - - - - - - - - - - - - - -
de |\
fdB2 bg | fdB2 fd | ecAFAc | e2d2 de |\
fdB2 bg | fdB2 fd | ecAFAc | {A}B4 :|
|: AB |\
cAFAce | dBFBdf | gegebg | =efef AB |\
cAFAce | dBFBdf | gegecA | B4 :|
|: F2 |\
B2d2f2 | fgfed2 | c2B2c2 | d2B2F2 |\
B2d2f2 | fgfed2 | c2B2c2 | B4 :|
% - - - - - - - - - - - - - - - - - - - - - - - - -

